public/images/play.svg

<svg width="80" height="80" viewBox="0 0 80 80" fill="none" xmlns="http://www.w3.org/2000/svg">
<rect width="80" height="80" rx="40" fill="#0166FF"/>
<path d="M43.6493 31.8375C48.3472 34.5161 50.6962 35.8554 51.4845 37.604C52.1721 39.1292 52.1721 40.8708 51.4845 42.396C50.6962 44.1446 48.3472 45.4839 43.6493 48.1625C38.9514 50.8412 36.6024 52.1805 34.6749 51.9804C32.9937 51.8059 31.4663 50.9351 30.4727 49.5844C29.3335 48.0359 29.3335 45.3573 29.3335 40C29.3335 34.6427 29.3335 31.9641 30.4727 30.4156C31.4663 29.0649 32.9937 28.1941 34.6749 28.0196C36.6024 27.8195 38.9514 29.1588 43.6493 31.8375Z" stroke="white" stroke-width="3"/>
</svg>

<svg width="80" height="80" fill="none" xmlns="http://www.w3.org/2000/svg"><rect width="80" height="80" rx="40" fill="#0166FF"/><path d="M43.65 31.837c4.697 2.68 7.046 4.018 7.834 5.767a5.824 5.824 0 0 1 0 4.792c-.788 1.749-3.137 3.088-7.835 5.767-4.698 2.678-7.047 4.018-8.974 3.817a5.98 5.98 0 0 1-4.202-2.396c-1.14-1.548-1.14-4.227-1.14-9.584 0-5.357 0-8.036 1.14-9.584a5.98 5.98 0 0 1 4.202-2.396c1.927-.2 4.276 1.139 8.974 3.817z" stroke="#fff" stroke-width="3"/></svg>
